X: 64
%
U:~=!turn!
T: The Bridge of Perth
C:Daniel Dow
O:Scotland
B:Keith Norman MacDonald : "The Skye collection of the best reels & strathspeys extant" : 1887
Z:Ralph Palmer
R:Reel
M:C
L:1/8
K:A
u(A/2B/2c/2d/2) eA dAfA | cAec ac ~c2 | u(A/2B/2c/2d/2) ed ceA=c | Bd=GB gc {/c}B2 :|
Aaea Aaea | Aaef eA ~c2 | Aaea caAa | =gbeg BG ~B2 |
Aaea caea | Aaef eA ~c2 | .a.f.g.e .f.d.e.c | B=GGB =gd B2 |]


